X:1
T:Cambdelmore
L:1/8
M:4/4
I:linebreak $
K:G
V:1 treble 
V:1
 d | TB>ABd e/e/e eg | dGTBA (G2 G)d | TB>ABd e/e/e ea | g>eg>B A2 A :| (a/g/ |$ b>)ga>e gdeg | %7
 dG(TBA) G2 G(g/a/ | b>)ea>g g>aba | g>eg>B A2 A(g/a/ | b>)ga>e g>deg |$ dGTBA G2 Gd | %12
 TB>ABd e/e/e ea | g>eg>B A2 A || %14
